markets/ORDI.svg

<svg width="42" height="42" viewBox="0 0 42 42" fill="none" xmlns="http://www.w3.org/2000/svg">
<path opacity="0.998" fill-rule="evenodd" clip-rule="evenodd" d="M20.099 -0.00693512C20.6207 -0.00693512 21.1422 -0.00693512 21.6638 -0.00693512C26.2673 0.185165 30.3848 1.68136 34.0159 4.48167C37.8096 7.50991 40.286 11.3973 41.4452 16.1437C41.754 17.4885 41.9364 18.8482 41.9922 20.223C41.9922 20.7457 41.9922 21.2682 41.9922 21.7909C41.7263 27.0899 39.79 31.6594 36.1831 35.4995C32.9082 38.8784 28.9362 40.9573 24.2672 41.7364C23.269 41.8887 22.2674 41.9743 21.2622 41.9931C21.0915 41.9931 20.9206 41.9931 20.7499 41.9931C15.9789 41.8898 11.7185 40.3798 7.96845 37.4628C4.51791 34.7017 2.14304 31.1982 0.843819 26.9524C0.346455 25.2559 0.0625786 23.5261 -0.0078125 21.7631C-0.0078125 21.2452 -0.0078125 20.7271 -0.0078125 20.2091C0.2284 15.2894 1.92935 10.965 5.09506 7.23588C8.03377 3.8743 11.678 1.64734 16.0278 0.555007C17.3691 0.237885 18.7262 0.0505699 20.099 -0.00693512Z" fill="black"/>
<path d="M18.8964 11.7221V8.57871H12.6544C11.5055 8.58622 9.20777 9.28605 9.20777 12.0253V18.6049C9.21767 18.8508 9.08397 19.3427 8.47001 19.3427H7.17212V22.6434H8.47001C9.08397 22.6434 9.21767 23.1353 9.20778 23.3812L9.20777 29.9608C9.20777 32.7 11.5055 33.3999 12.6544 33.4074H18.8964L18.8964 30.264H14.3347C13.9469 30.225 13.1713 29.9378 13.1713 29.1005L13.1713 23.0559C13.1441 22.3802 12.9051 21.041 12.1687 20.993C12.9051 20.9451 13.1441 19.6059 13.1713 18.9302V12.8856C13.1713 12.0483 13.9469 11.7611 14.3347 11.7221H18.8964Z" fill="white"/>
<path d="M23.0877 30.2639V33.4074H29.3298C30.4786 33.3999 32.7764 32.7 32.7764 29.9608V23.3812C32.7665 23.1353 32.9002 22.6434 33.5141 22.6434H34.812L34.812 19.3427H33.5141C32.9002 19.3427 32.7665 18.8508 32.7764 18.6049L32.7764 12.0253C32.7764 9.28605 30.4786 8.58621 29.3298 8.57871L23.0878 8.5787L23.0877 11.7221L27.6494 11.7221C28.0372 11.7611 28.8129 12.0483 28.8129 12.8856L28.8129 18.9302C28.84 19.6059 29.079 20.9451 29.8154 20.993C29.079 21.041 28.84 22.3802 28.8129 23.0559L28.8129 29.1005C28.8129 29.9378 28.0372 30.225 27.6494 30.2639H23.0877Z" fill="white"/>
<path fill-rule="evenodd" clip-rule="evenodd" d="M20.9922 26.1322C23.8304 26.1322 26.1313 23.8313 26.1313 20.993C26.1313 18.1548 23.8304 15.8539 20.9922 15.8539C18.1539 15.8539 15.853 18.1548 15.853 20.993C15.853 23.8313 18.1539 26.1322 20.9922 26.1322ZM20.9922 23.4672C22.3587 23.4672 23.4664 22.3595 23.4664 20.993C23.4664 19.6266 22.3587 18.5189 20.9922 18.5189C19.6258 18.5189 18.5181 19.6266 18.5181 20.993C18.5181 22.3595 19.6258 23.4672 20.9922 23.4672Z" fill="white"/>
</svg>

<svg width="42" height="42" fill="none" xmlns="http://www.w3.org/2000/svg">
  <path fill="#000" fill-rule="evenodd" d="M20.099-.007h1.565q6.904.288 12.352 4.489 5.69 4.542 7.43 11.662.462 2.017.546 4.079v1.568q-.399 7.948-5.809 13.708-4.913 5.07-11.916 6.237-1.497.229-3.005.257h-.512q-7.156-.154-12.782-4.53-5.175-4.142-7.124-10.51a21.4 21.4 0 0 1-.852-5.19V20.21q.354-7.38 5.103-12.973Q9.503 2.193 16.028.555a21.6 21.6 0 0 1 4.071-.562" clip-rule="evenodd" opacity=".998"/>
  <path fill="#fff" fill-rule="evenodd" d="M18.896 11.722V8.58h-6.242c-1.149.007-3.446.707-3.446 3.446v6.58c.01.246-.124.738-.738.738H7.172v3.301H8.47c.614 0 .748.491.738.737v6.58c0 2.739 2.297 3.439 3.446 3.446h6.242v-3.143h-4.561c-.388-.039-1.164-.326-1.164-1.163v-6.045c-.027-.676-.266-2.015-1.002-2.063.736-.048.975-1.387 1.002-2.063v-6.044c0-.838.776-1.125 1.164-1.164h4.561Zm4.192 18.542v3.143h6.242c1.149-.007 3.446-.707 3.446-3.446v-6.58c-.01-.246.124-.738.738-.738h1.298v-3.301h-1.298c-.614 0-.748-.491-.738-.737v-6.58c0-2.739-2.297-3.439-3.446-3.446h-6.242v3.143h4.561c.388.04 1.164.326 1.164 1.164v6.044c.027.676.266 2.015 1.002 2.063-.736.048-.975 1.387-1.002 2.063V29.1c0 .838-.776 1.125-1.164 1.164z" clip-rule="evenodd"/>
  <path fill="#fff" fill-rule="evenodd" d="M20.992 26.132a5.14 5.14 0 1 0 0-10.278 5.14 5.14 0 0 0 0 10.278m0-2.665a2.474 2.474 0 1 0 0-4.948 2.474 2.474 0 0 0 0 4.948" clip-rule="evenodd"/>
</svg>
